resources/haticons/SVG/location_city.svg

<svg height="24" viewBox="0 0 24 24" width="24" xmlns="http://www.w3.org/2000/svg"><path d="m18.984 15v-2.016h-1.969v2.016zm0 3.984v-1.969h-1.969v1.969zm-6-12v-1.969h-1.969v1.969zm0 4.032v-2.016h-1.969v2.016zm0 3.984v-2.016h-1.969v2.016zm0 3.984v-1.969h-1.969v1.969zm-6-7.968v-2.016h-1.969v2.016zm0 3.984v-2.016h-1.969v2.016zm0 3.984v-1.969h-1.969v1.969zm8.016-7.968h6v9.984h-18v-14.016h6v-1.969l3-3 3 3v6z"/></svg>

<svg height="24" width="24" xmlns="http://www.w3.org/2000/svg"><path d="M18.984 15v-2.016h-1.969V15zm0 3.984v-1.969h-1.969v1.969zm-6-12V5.015h-1.969v1.969zm0 4.032V9h-1.969v2.016zm0 3.984v-2.016h-1.969V15zm0 3.984v-1.969h-1.969v1.969zm-6-7.968V9H5.015v2.016zm0 3.984v-2.016H5.015V15zm0 3.984v-1.969H5.015v1.969zM15 11.016h6V21H3V6.984h6V5.015l3-3 3 3v6z"/></svg>
